Resources/Public/Images/Icons/Ionicons/ios-recording-outline.svg

<svg xmlns="http://www.w3.org/2000/svg" width="32" height="32" viewBox="0 0 512 512"><path d="M386.2 144c-60.6 0-109.8 50.1-109.8 112 0 40.4 21 75.7 52.5 95.4H183.1c31.5-19.7 52.5-55 52.5-95.4 0-61.9-49.2-112-109.8-112C65.2 144 16 194.1 16 256s49.2 112 109.8 112h260.4c60.6 0 109.8-50.1 109.8-112s-49.2-112-109.8-112zM32.3 256c0-52.6 42-95.4 93.5-95.4 51.6 0 93.5 42.8 93.5 95.4s-42 95.4-93.5 95.4c-51.6 0-93.5-42.8-93.5-95.4zm353.9 95.4c-51.6 0-93.5-42.8-93.5-95.4s42-95.4 93.5-95.4 93.5 42.8 93.5 95.4-41.9 95.4-93.5 95.4z"/><path d="M384 208c26.5 0 48 21.5 48 48s-21.5 48-48 48-48-21.5-48-48 21.5-48 48-48m0-16c-35.3 0-64 28.7-64 64s28.7 64 64 64 64-28.7 64-64-28.7-64-64-64zM128 208c26.5 0 48 21.5 48 48s-21.5 48-48 48-48-21.5-48-48 21.5-48 48-48m0-16c-35.3 0-64 28.7-64 64s28.7 64 64 64 64-28.7 64-64-28.7-64-64-64z"/></svg>

<?xml version="1.0" encoding="utf-8"?>
<!-- Generator: Adobe Illustrator 16.2.1, SVG Export Plug-In . SVG Version: 6.00 Build 0)  -->
<!DOCTYPE svg PUBLIC "-//W3C//DTD SVG 1.1//EN" "http://www.w3.org/Graphics/SVG/1.1/DTD/svg11.dtd">
<svg version="1.1" id="Layer_1" xmlns="http://www.w3.org/2000/svg" xmlns:xlink="http://www.w3.org/1999/xlink" x="0px" y="0px"
	 width="32px" height="32px" viewBox="0 0 512 512" style="enable-background:new 0 0 512 512;" xml:space="preserve">
<path d="M386.2,144c-60.6,0-109.8,50.1-109.8,112c0,40.4,21,75.7,52.5,95.4H183.1c31.5-19.7,52.5-55,52.5-95.4
	c0-61.9-49.2-112-109.8-112C65.2,144,16,194.1,16,256c0,61.9,49.2,112,109.8,112h260.4c60.6,0,109.8-50.1,109.8-112
	C496,194.1,446.8,144,386.2,144z M32.3,256c0-52.6,42-95.4,93.5-95.4c51.6,0,93.5,42.8,93.5,95.4s-42,95.4-93.5,95.4
	C74.2,351.4,32.3,308.6,32.3,256z M386.2,351.4c-51.6,0-93.5-42.8-93.5-95.4s42-95.4,93.5-95.4s93.5,42.8,93.5,95.4
	S437.8,351.4,386.2,351.4z"/>
<path d="M384,208c26.5,0,48,21.5,48,48c0,26.5-21.5,48-48,48s-48-21.5-48-48C336,229.5,357.5,208,384,208 M384,192
	c-35.3,0-64,28.7-64,64c0,35.3,28.7,64,64,64s64-28.7,64-64C448,220.7,419.3,192,384,192L384,192z"/>
<path d="M128,208c26.5,0,48,21.5,48,48c0,26.5-21.5,48-48,48s-48-21.5-48-48C80,229.5,101.5,208,128,208 M128,192
	c-35.3,0-64,28.7-64,64c0,35.3,28.7,64,64,64s64-28.7,64-64C192,220.7,163.3,192,128,192L128,192z"/>
</svg>
